src/components/icons/FurnituresIcon.svg

<svg width="36" height="36" viewBox="0 0 36 36" fill="none" xmlns="http://www.w3.org/2000/svg">
<path d="M9.5649 15.2156C9.88906 15.6962 10.1497 16.2167 10.3405 16.7641C10.8643 18.221 11.0218 19.9555 11.0614 21.1612H24.9368C24.9771 19.9561 25.1345 18.2203 25.6583 16.7634C25.8485 16.2167 26.1087 15.6968 26.4326 15.217C26.8562 14.6096 27.3832 14.0813 27.9894 13.656C28.2082 13.4966 28.4359 13.3498 28.6713 13.2161C27.0778 9.67163 22.8915 7.28572 17.999 7.28572C13.3632 7.28572 9.27416 9.74655 7.61743 13.3909C7.752 13.4776 7.88176 13.5665 8.008 13.656C8.61334 14.0818 9.14011 14.6096 9.5649 15.2156Z" fill="#00E676"/>
<path d="M11.0614 21.1612C11.0218 19.9555 10.8643 18.221 10.3405 16.7641C14.2936 13.2725 23.4941 7.67472 28.6713 13.2161C28.4359 13.3498 28.2082 13.4966 27.9894 13.656C27.3832 14.0813 26.8562 14.6096 26.4326 15.217C26.1087 15.6969 25.8485 16.2167 25.6583 16.7634C25.1345 18.2203 24.9771 19.9561 24.9368 21.1612H11.0614Z" fill="black" fill-opacity="0.1"/>
<path d="M32.0522 14.7133C31.7011 14.3616 31.2675 14.2651 31.0081 14.2075C30.651 14.1281 30.2808 14.1281 29.9237 14.2075C29.47 14.3095 29.1835 14.5114 28.7859 14.7917C28.314 15.1226 27.9036 15.5335 27.5732 16.0058C27.3196 16.3878 27.1147 16.8001 26.9634 17.2331C26.3938 18.8024 26.3106 20.8032 26.3099 21.855C26.3099 22.2381 25.9992 22.5487 25.6161 22.5487H10.3808C9.99768 22.5487 9.68704 22.2381 9.68704 21.855C9.68704 20.8025 9.59962 18.8024 9.03559 17.2331C8.88378 16.7998 8.67871 16.3871 8.42505 16.0044C8.09399 15.5322 7.68312 15.1213 7.21092 14.7902C6.81339 14.5127 6.52617 14.3046 6.07173 14.2054C5.71517 14.1253 5.34528 14.1253 4.98872 14.2054C4.72856 14.263 4.29493 14.3601 3.94319 14.7119C3.93766 14.7181 3.31879 15.3599 3.44575 16.1972C3.58448 17.0929 4.43991 17.5903 4.98313 17.7055C5.1806 17.747 5.38502 17.7425 5.58047 17.6923C5.81637 17.6472 6.14034 17.5847 6.50802 17.7512C7.66595 18.2744 7.79219 20.2585 6.93814 24.5856C7.3745 25.8677 7.92397 25.9669 8.34023 26.0154H9.68613V28.0968C9.68613 28.4799 9.99677 28.7906 10.3799 28.7906H11.0737C11.4569 28.7906 11.7675 28.4799 11.7675 28.0968V26.0175H24.2318V28.0988C24.2318 28.482 24.5424 28.7926 24.9256 28.7926H25.6194C26.0026 28.7926 26.3132 28.482 26.3132 28.0988V26.0175H27.6591C28.0754 25.9697 28.6248 25.8697 29.0612 24.5877C28.2071 20.2613 28.3334 18.2743 29.4913 17.7533C29.859 17.5868 30.1851 17.6485 30.4196 17.6943C30.6154 17.7434 30.8198 17.7477 31.0176 17.7068C31.5608 17.5916 32.4176 17.0942 32.555 16.1992C32.6793 15.362 32.0584 14.7203 32.0522 14.7133Z" fill="#00C853"/>
</svg>

<svg width="36" height="36" fill="none" xmlns="http://www.w3.org/2000/svg"><path d="M9.565 15.216c.324.48.585 1 .776 1.548.523 1.457.68 3.192.72 4.397h13.876c.04-1.205.197-2.94.721-4.398.19-.546.45-1.066.775-1.546a6.33 6.33 0 011.556-1.561 7.18 7.18 0 01.682-.44c-1.593-3.544-5.78-5.93-10.672-5.93-4.636 0-8.725 2.46-10.382 6.105.135.087.265.175.391.265a6.394 6.394 0 011.557 1.56z" fill="#00E676"/><path d="M11.061 21.161c-.04-1.206-.197-2.94-.72-4.397 3.953-3.491 13.153-9.09 18.33-3.548a7.18 7.18 0 00-.682.44 6.33 6.33 0 00-1.556 1.561c-.324.48-.584 1-.775 1.546-.524 1.457-.68 3.193-.721 4.398H11.06z" fill="#000" fill-opacity=".1"/><path d="M32.052 14.713c-.35-.351-.785-.448-1.044-.505a2.498 2.498 0 00-1.084 0c-.454.101-.74.303-1.138.584-.472.33-.882.742-1.213 1.214a5.498 5.498 0 00-.61 1.227c-.57 1.57-.652 3.57-.653 4.622 0 .383-.31.694-.694.694H10.381a.694.694 0 01-.694-.694c0-1.053-.087-3.053-.651-4.622a5.539 5.539 0 00-.61-1.229A4.962 4.962 0 007.21 14.79c-.398-.277-.685-.485-1.14-.585a2.47 2.47 0 00-1.082 0c-.26.058-.694.155-1.046.507-.005.006-.624.648-.497 1.485.138.896.994 1.393 1.537 1.509.198.041.402.037.597-.014.236-.045.56-.107.928.06 1.158.522 1.284 2.507.43 6.834.437 1.282.986 1.38 1.402 1.43h1.346v2.08c0 .384.31.695.694.695h.694c.383 0 .694-.311.694-.694v-2.08h12.464V28.1c0 .383.31.694.694.694h.693c.384 0 .694-.311.694-.694v-2.082h1.346c.416-.047.966-.147 1.402-1.43-.854-4.326-.728-6.313.43-6.834.368-.166.694-.105.929-.059.195.05.4.054.598.013.543-.115 1.4-.613 1.537-1.508.124-.837-.497-1.479-.503-1.486z" fill="#00C853"/></svg>
